X:1
T:Quando signor
T:Giammateo Asola
T:Source : Madrigali a due voci---Venetia---G.Vincenti---1587. Editor : André Vierendeels (24/04/17).
T:Notes : Original clef  : C4  (Fuga di mezo tempo, una octava piu alto) Original note values have been halved Editorial accidentals above the staff
T:Quando signor per far
T:©
T:©
T:©
C:Giammateo Asola
Z:©
%%score [ 1 2 ]
L:1/8
Q:1/4=120
M:2/2
K:F
V:1 treble nm="Alto" snm="A"
V:2 treble-8 nm="Tenor" snm="T"
V:1
 z4 A4 | A2 A2 G2 E2 | F2 G2 A2 F2 | E2 A3 G/F/ G2 | A2 F2 EE A2 | G2 EE FF G2 | FFFG A3 B | %7
w: Quan-|do si- gnor per|far lo- co al|tuo'a- mo- * * *|re, mi ca- v'il cor'|e fai ch'ei cor mi sia|vi- ge fai ch'ei cor _|
 c2 C3 DEF | G2 E2 D2 E2 | F2 D2 C2 D2 | E2 F2 E4 | z2 G2 FDFG | A2 F2 G2 A2 | F2 G2 A2 GF | %14
w: mi si _ _ _|_ a, e vi-|ta'ei ve- ra mi-|a lu- ce|ch'a te sem- pre mi|guid' e por- te,|ch'a te sem- pre mi|
 E2 F2 G>F E2 | D2 z E F A2 G | A2 F2 E3 F | D2 E2 FFGG | AA B2 A4 | z2 A2 D2 E2 | FFGG EFFD | %21
w: guid' e por- * *|te, ma te n'an- za|la mor- te, for-|za'è si- gnor ch'in me tu|vi- va me- no,|for- za'è si-|gnor, for- za'è si- gnor ch'in me tu|
 EE F2 E4 | D2 G4 F2 | G2 E2 D2 E2 | F2 D2 E2 F2 | G>FE F2 DEE | F2 D2 z A2 G | A c2 B AG A2 | %28
w: vi- va me- no,|fam- mi mo-|rir si- gnor, fam-|mi mo- rir si-|gno _ _ vi- n'in me ap-|pie- no, vi- n'in|me, vi- n'in me ap- pie-|
 GF E2 z A2 G | AA F2 E2 A2- | AG G3 F F2 | G8 |] %32
w: * * no, vi- n'in|me ap pie- no, vi-|* n'in me ap- pie-|no.|
V:2
 d4 d2 d2 | c2 A2 B2 c2 | d2 B2 A2 d2- | dc/B/ c2 d2 B2 | AA d2 c2 AA | BB c2 BBBc | d3 e f2 F2- | %7
w: Quan- do si-|gnor per far lo-|co al tuo'a- mo-|* * * * re, mi|ca- v'il cor' e fai ch'ei|cor mi sia vi- ge fai ch'ei|cor _ mi si-|
 F GAB c2 A2 | G2 A2 B2 G2 | F2 G2 A2 B2 | A4 z2 c2 | BGBc d2 B2 | c2 d2 B2 c2 | d2 cB A2 B2 | %14
w: * * * * * a,|e vi- ta'ei ve-|ra mi- a lu-|ce, ch'a|te sem- pre mi guid' e|por- te, ch'a te|sem- premi _ guid' e|
 c>B A2 G2 z A | B d2 c d2 B2 | A3 B G2 A2 | BBcc dd e2 | d4 z2 d2 | G2 A2 BBcc | ABBG AA B2 | %21
w: por- * * te, ma|te n'an- za la mor-|te, for- za'è si-|gnor ch'in me tu vi- va me-|no, for-|za'è si- gnor, for- za'è si-|gnor ch'in me tu vi- va me-|
 A4 G2 c2- | c2 B2 c2 A2 | G2 A2 B2 G2 | A2 B2 c>BAB- | BGAA B2 G2 | z d2 c d f2 e | dc d2 cB A2 | %28
w: no, fam- mi|_ mo- rir si-|gnor, fam- mi mo-|rir si- gnor, _ _ vi-|* n'in me ap- pie- no,|vi- n'in me, vi- n'in|me ap- pie- * * no,|
 z d2 c dd B2 | A2 d3 c c2- | cB B2 c2 A2 | G8 |] %32
w: vi- v'in me ap- pie-|no, vi- v'in me|_ ap- pi- * *|no.|

